static/lexicon/images/home/liferay_logo.svg

<?xml version="1.0" encoding="UTF-8"?>
<svg width="40px" height="41px" viewBox="0 0 40 41" version="1.1" xmlns="http://www.w3.org/2000/svg" xmlns:xlink="http://www.w3.org/1999/xlink">
    <!-- Generator: Sketch 44 (41411) - http://www.bohemiancoding.com/sketch -->
    <title>liferay_logo</title>
    <desc>Created with Sketch.</desc>
    <defs></defs>
    <g id="Page-1" stroke="none" stroke-width="1" fill="none" fill-rule="evenodd">
        <g id="LSH-00-Copy-20" transform="translate(-272.000000, -3538.000000)" fill-rule="nonzero" fill="#FFFFFF">
            <g id="Group-20" transform="translate(272.000000, 3538.000000)">
                <g id="liferay_logo">
                    <g id="Layer_1">
                        <path d="M4.16897015,0.520329479 C1.87663044,0.520329479 0,2.39883655 0,4.6934686 L0,35.9821043 C0,38.2727732 1.87663044,40.1512803 4.16897015,40.1512803 L35.4263484,40.1512803 C37.7186881,40.1512803 39.5953186,38.2727732 39.5953186,35.9781412 L39.5953186,4.6934686 C39.5913594,2.39883655 37.714729,0.520329479 35.4223893,0.520329479 L4.16897015,0.520329479 Z M10.4204458,4.6934686 L10.4204458,10.9511957 L4.16897015,10.9511957 L4.16897015,4.6934686 L10.4204458,4.6934686 Z M18.754427,4.6934686 L18.754427,10.9511957 L12.5029513,10.9511957 L12.5029513,4.6934686 L18.754427,4.6934686 Z M27.0884081,4.6934686 L27.0884081,10.9511957 L20.8369325,10.9511957 L20.8369325,4.6934686 L27.0884081,4.6934686 Z M10.4204458,13.0357837 L10.4204458,19.2935109 L4.16897015,19.2935109 L4.16897015,13.0357837 L10.4204458,13.0357837 Z M18.754427,13.0357837 L18.754427,19.2935109 L12.5029513,19.2935109 L12.5029513,13.0357837 L18.754427,13.0357837 Z M35.4223893,13.0357837 L35.4223893,19.2935109 L29.1709136,19.2935109 L29.1709136,13.0357837 L35.4223893,13.0357837 Z M10.4204458,21.3780989 L10.4204458,27.635826 L4.16897015,27.635826 L4.16897015,21.3780989 L10.4204458,21.3780989 Z M27.0884081,21.3780989 L27.0884081,27.635826 L20.8369325,27.635826 L20.8369325,21.3780989 L27.0884081,21.3780989 Z M35.4223893,21.3780989 L35.4223893,27.635826 L29.1709136,27.635826 L29.1709136,21.3780989 L35.4223893,21.3780989 Z M18.754427,29.720414 L18.754427,35.9781412 L12.5029513,35.9781412 L12.5029513,29.720414 L18.754427,29.720414 Z M27.0884081,29.720414 L27.0884081,35.9781412 L20.8369325,35.9781412 L20.8369325,29.720414 L27.0884081,29.720414 Z M35.4223893,29.720414 L35.4223893,35.9781412 L29.1709136,35.9781412 L29.1709136,29.720414 L35.4223893,29.720414 Z" id="Shape"></path>
                    </g>
                </g>
            </g>
        </g>
    </g>
</svg>

<svg width="40" height="41" xmlns="http://www.w3.org/2000/svg"><path d="M4.169.52A4.184 4.184 0 0 0 0 4.693v31.29c0 2.29 1.877 4.168 4.169 4.168h31.257a4.184 4.184 0 0 0 4.17-4.173V4.693C39.59 2.4 37.714.52 35.421.52H4.17zm6.251 4.173v6.258H4.17V4.693h6.251zm8.334 0v6.258h-6.251V4.693h6.251zm8.334 0v6.258h-6.251V4.693h6.251zM10.42 13.036v6.258H4.17v-6.258h6.251zm8.334 0v6.258h-6.251v-6.258h6.251zm16.668 0v6.258h-6.251v-6.258h6.251zM10.42 21.378v6.258H4.17v-6.258h6.251zm16.668 0v6.258h-6.251v-6.258h6.251zm8.334 0v6.258h-6.251v-6.258h6.251zM18.754 29.72v6.258h-6.251V29.72h6.251zm8.334 0v6.258h-6.251V29.72h6.251zm8.334 0v6.258h-6.251V29.72h6.251z" fill="#FFF"/></svg>
